src/lib/packages/icons/src/assets/filled/hat-chef.svg

<svg width="24" height="24" viewBox="0 0 24 24" fill="none" xmlns="http://www.w3.org/2000/svg">
<path d="M6.29987 16.75H17.6999C17.8699 16.75 17.9999 16.88 17.9999 17.05V19.5C17.9999 20.33 17.3299 21 16.4999 21H7.49989C6.66989 21 5.99989 20.33 5.99989 19.5V17.05C5.99989 16.88 6.12987 16.75 6.29987 16.75ZM18.5199 6.16C17.8499 5.95 17.2099 5.97 16.6299 6.11C15.8899 4.29 14.0899 3 11.9999 3C9.90989 3 8.10988 4.29 7.36988 6.11C6.77988 5.96 6.14987 5.95 5.47987 6.16C4.24987 6.54 3.28988 7.59001 3.05988 8.85001C2.68988 10.89 4.10989 12.69 5.99989 12.96V14.95C5.99989 15.12 6.12987 15.25 6.29987 15.25H8.60987L8.2599 13.12C8.1899 12.71 8.46989 12.32 8.87989 12.26C9.27989 12.19 9.66988 12.47 9.73988 12.88L10.1399 15.25H11.2499V12C11.2499 11.59 11.5899 11.25 11.9999 11.25C12.4099 11.25 12.7499 11.59 12.7499 12V15.25H13.8599L14.2599 12.88C14.3299 12.47 14.7199 12.19 15.1199 12.26C15.5299 12.33 15.7999 12.71 15.7399 13.12L15.3899 15.25H17.6999C17.8699 15.25 17.9999 15.12 17.9999 14.95V12.96C19.8899 12.69 21.3099 10.89 20.9399 8.85001C20.7099 7.59001 19.7499 6.54 18.5199 6.16Z" fill="currentColor"/>
</svg>

<svg xmlns="http://www.w3.org/2000/svg" width="24" height="24" fill="none"><path fill="currentColor" d="M6.3 16.75h11.4c.17 0 .3.13.3.3v2.45c0 .83-.67 1.5-1.5 1.5h-9c-.83 0-1.5-.67-1.5-1.5v-2.45c0-.17.13-.3.3-.3ZM18.52 6.16c-.67-.21-1.31-.19-1.89-.05A5.005 5.005 0 0 0 12 3C9.91 3 8.11 4.29 7.37 6.11c-.59-.15-1.22-.16-1.89.05-1.23.38-2.19 1.43-2.42 2.69A3.505 3.505 0 0 0 6 12.96v1.99c0 .17.13.3.3.3h2.31l-.35-2.13c-.07-.41.21-.8.62-.86.4-.07.79.21.86.62l.4 2.37h1.11V12c0-.41.34-.75.75-.75s.75.34.75.75v3.25h1.11l.4-2.37c.07-.41.46-.69.86-.62.41.07.68.45.62.86l-.35 2.13h2.31c.17 0 .3-.13.3-.3v-1.99a3.505 3.505 0 0 0 2.94-4.11c-.23-1.26-1.19-2.31-2.42-2.69Z"/></svg>
